; generated by PrusaSlicer 2.6.1+win64 on 2023-11-15 at 19:12:33 UTC


;
;
; 

; external perimeters extrusion width = 0.45mm
; perimeters extrusion width = 0.45mm
; infill extrusion width = 0.45mm
; solid infill extrusion width = 0.45mm
; top infill extrusion width = 0.40mm
; support material extrusion width = 0.35mm
; first layer extrusion width = 0.42mm

; external perimeters extrusion width = 0.45mm
; perimeters extrusion width = 0.45mm
; infill extrusion width = 0.45mm
; solid infill extrusion width = 0.45mm
; top infill extrusion width = 0.40mm
; support material extrusion width = 0.35mm
; first layer extrusion width = 0.42mm

; external perimeters extrusion width = 0.45mm
; perimeters extrusion width = 0.45mm
; infill extrusion width = 0.45mm
; solid infill extrusion width = 0.45mm
; top infill extrusion width = 0.40mm
; support material extrusion width = 0.35mm
; first layer extrusion width = 0.42mm

; external perimeters extrusion width = 0.45mm
; perimeters extrusion width = 0.45mm
; infill extrusion width = 0.45mm
; solid infill extrusion width = 0.45mm
; top infill extrusion width = 0.40mm
; support material extrusion width = 0.35mm
; first layer extrusion width = 0.42mm

;TYPE:Custom
SET_FILAMENT_SENSOR SENSOR=filament_sensor ENABLE=0
SET_FILAMENT_SENSOR SENSOR=filament_sensor_2 ENABLE=0

M82 ;absolute extrusion mode
START_PRINT EXTRUDER_TEMP=220 BED_TEMP=50

G92 E0

; 3DChameleon Preload Extruder 1
; load filament 1 to extruder
G0 X0 Y217 F2000 ; move to button
G0 Y220 F2000 ; press button
G4 P3200 ; wait for 7 pulses
G0 Y217 F2000 ; unpress button
G4 P2000 ; wait for it to home

; select T0
G0 Y220 F2000 ; press button
G4 P550 ; wait for 550 milliseconds
G0 Y217 F2000 ; unpress button
G4 P2000 ; all done

; load T0 for 28 seconds and into extruder
G0 Y220 F2000 ; press button
G4 P27500 ; wait for 28 seconds
G0 E15 F500 ; <<<--- adjust this E value to tune extruder loading
G0 X1 Y210 ; move to extruders assigned purge line
G0 Y0 E60; purge the extruder.
G0 X0; purge the extruder.
G0 Y200 E105; purge the extruder.
G4 P2000 ; all done

SET_FILAMENT_SENSOR SENSOR=filament_sensor ENABLE=1
SET_FILAMENT_SENSOR SENSOR=filament_sensor_2 ENABLE=1
G21 ; set units to millimeters
G90 ; use absolute coordinates
M83 ; use relative distances for extrusion
T0
; Filament gcode
G1 Z.2 F30000
M107
;LAYER_CHANGE
;Z:0.2
;HEIGHT:0.2
G1 Z.2 F30000
G92 E0
G1 E-2 F2400
G1 Z.6 F30000
G1 X54.001 Y88.214
G1 Z.2
G1 E2 F2400
;TYPE:Skirt/Brim
;WIDTH:0.42
;HEIGHT:0.2
G1 F3000
G1 X92.538 Y64.624 E1.41671
G1 X96.752 Y62.63 E.14617
G1 X100.217 Y61.39 E.11539
G1 X104.259 Y60.353 E.13084
G1 X108.871 Y59.669 E.14619
G1 X113.14 Y59.493 E.13397
G1 X117.206 Y59.717 E.12768
G1 X120.846 Y60.257 E.11538
G1 X125.37 Y61.39 E.14623
G1 X128.835 Y62.63 E.11539
G1 X132.615 Y64.392 E.13076
G1 X136.206 Y66.516 E.13081
G1 X139.952 Y69.293 E.14621
G1 X143.028 Y72.113 E.13084
G1 X145.499 Y74.84 E.11538
G1 X148.003 Y78.177 E.13081
G1 X150.401 Y82.177 E.14623
G1 X152.162 Y85.957 E.13075
G1 X153.402 Y89.422 E.11539
G1 X154.439 Y93.464 E.13084
G1 X155.123 Y98.076 E.14619
G1 X155.304 Y102.245 E.13084
G1 X155.123 Y105.921 E.1154
G1 X154.439 Y110.533 E.14619
G1 X153.402 Y114.575 E.13084
G1 X152.162 Y118.04 E.11539
G1 X150.401 Y121.821 E.13078
G1 X148.003 Y125.821 E.14623
G1 X145.644 Y128.991 E.12389
G1 X77.64 Y211.016 E3.34076
G1 X76.089 Y212.267 E.06248
G1 X73.778 Y212.831 E.07459
G1 X10.122 Y212.831 E1.99589
G1 X8.168 Y212.435 E.06251
G1 X6.523 Y211.309 E.0625
G1 X5.446 Y209.632 E.06249
G1 X5.105 Y207.814 E.058
G1 X5.105 Y120.958 E2.72331
G1 X5.501 Y119.004 E.06251
G1 X6.627 Y117.359 E.0625
G1 X7.501 Y116.68 E.0347
G1 X53.95 Y88.246 E1.70759
G1 X54.147 Y88.567 F30000
G1 F3000
G1 X92.732 Y64.947 E1.41849
G1 X96.879 Y62.986 E.14383
G1 X100.344 Y61.745 E.1154
G1 X104.35 Y60.719 E.12966
G1 X108.889 Y60.046 E.14387
G1 X113.121 Y59.87 E.13281
G1 X117.15 Y60.09 E.12651
G1 X120.79 Y60.63 E.11538
G1 X125.243 Y61.745 E.14393
G1 X128.708 Y62.986 E.1154
G1 X132.454 Y64.733 E.1296
G1 X136.012 Y66.839 E.12964
G1 X139.699 Y69.573 E.14392
G1 X142.749 Y72.366 E.12967
G1 X145.508 Y75.445 E.12963
G1 X147.7 Y78.401 E.11539
G1 X150.06 Y82.338 E.14392
G1 X151.807 Y86.085 E.12963
G1 X153.047 Y89.55 E.11539
G1 X154.073 Y93.556 E.12966
G1 X154.746 Y98.095 E.14387
G1 X154.927 Y102.227 E.12968
G1 X154.746 Y105.903 E.1154
G1 X154.073 Y110.442 E.14387
G1 X153.047 Y114.448 E.12966
G1 X151.807 Y117.913 E.11539
G1 X150.06 Y121.659 E.1296
G1 X147.7 Y125.596 E.14392
G1 X145.353 Y128.75 E.12327
G1 X77.35 Y210.775 E3.34074
G1 X75.849 Y211.966 E.06008
G1 X73.778 Y212.454 E.06671
G1 X10.122 Y212.454 E1.99589
G1 X8.247 Y212.058 E.06009
G1 X6.692 Y210.938 E.06009
G1 X5.722 Y209.286 E.06007
G1 X5.482 Y207.814 E.04676
G1 X5.482 Y120.958 E2.72331
G1 X5.878 Y119.083 E.06009
G1 X7.698 Y117.001 E.08671
G1 X54.096 Y88.598 E1.70572
G1 E-2 F2400
G1 Z.6 F30000
G1 X93.52 Y110.447
G1 Z.2
G1 E2 F2400
;TYPE:External perimeter
;WIDTH:0.533286
G1 F3000
G1 X93.662 Y110.655 E.01027
;WIDTH:0.49299
G1 X93.804 Y110.863 E.00943
;WIDTH:0.481422
G1 X94.057 Y111.333 E.01946
G1 E-2 F2400
G1 Z.6 F30000
G1 X92.106 Y109.711
G1 Z.2
G1 E2 F2400
;WIDTH:0.482074
G1 F3000
G1 X92.641 Y109.689 E.01955
;WIDTH:0.438145
G1 X93.141 Y109.689 E.01643
G1 X93.289 Y109.946 E.00975
;WIDTH:0.485716
G1 X93.404 Y110.196 E.01013
;WIDTH:0.533286
G1 X93.52 Y110.447 E.01127
G1 X93.481 Y110.416 E.00203
;WIDTH:0.521126
G1 X93.273 Y110.276 E.00997
;WIDTH:0.479636
G1 X93.066 Y110.136 E.00907
;WIDTH:0.438145
G1 X92.609 Y109.89 E.01706
;WIDTH:0.482074
G1 X92.163 Y109.731 E.01729
G1 E-2 F2400
G1 Z.6 F30000
G1 X94.081 Y113.269
G1 Z.2
G1 E2 F2400
;WIDTH:0.489636
G1 F3000
G1 X94.135 Y112.808 E.01724
;WIDTH:0.452027
G1 X94.188 Y112.346 E.01582
;WIDTH:0.414418
G1 X94.158 Y111.847 E.01544
;WIDTH:0.44792
G1 X94.107 Y111.59 E.00882
;WIDTH:0.481422
G1 X94.057 Y111.333 E.00955
G1 X94.261 Y111.674 E.01449
;WIDTH:0.44792
G1 X94.466 Y112.015 E.0134
;WIDTH:0.414418
G1 X94.559 Y112.373 E.01143
G1 X94.553 Y112.445 E.00223
;WIDTH:0.413513
G1 X94.373 Y112.863 E.01402
;WIDTH:0.454315
G1 X94.225 Y113.079 E.00896
;WIDTH:0.495116
G1 X94.095 Y113.268 E.00863
G1 X94.076 Y113.295 F30000
G1 F3000
G1 X93.886 Y113.672 E.01587
;WIDTH:0.472021
G1 X93.724 Y113.927 E.01078
;WIDTH:0.497384
G1 X93.561 Y114.183 E.01147
;WIDTH:0.500018
G1 X93.55 Y114.2 E.00077
G1 X92.049 Y114.962 F30000
;WIDTH:0.44751
G1 F3000
G1 X91.796 Y114.972 E.00852
;WIDTH:0.415388
G1 X91.544 Y114.982 E.00781
;WIDTH:0.40754
G1 X91.101 Y114.955 E.01346
G1 E-2 F2400
G1 Z.6 F30000
G1 X93.523 Y114.223
G1 Z.2
G1 E2 F2400
;WIDTH:0.492871
G1 F3000
G1 X93.44 Y114.416 E.00786
;WIDTH:0.457095
G1 X93.358 Y114.61 E.00725
;WIDTH:0.421319
G1 X93.143 Y114.946 E.01255
G1 X92.726 Y114.976 E.01315
;WIDTH:0.44751
G1 X92.049 Y114.962 E.02278
G1 X92.078 Y114.959 E.00098
;WIDTH:0.445629
G1 X92.69 Y114.743 E.02173
;WIDTH:0.421319
G1 X92.937 Y114.611 E.00881
;WIDTH:0.457095
G1 X93.23 Y114.417 E.0121
;WIDTH:0.492871
G1 X93.473 Y114.256 E.01091
G1 E-2 F2400
G1 Z.6 F30000
G1 X89.297 Y113.873
G1 Z.2
G1 E2 F2400
;WIDTH:0.449914
G1 F3000
G1 X89.076 Y113.486 E.01508
G1 E-2 F2400
G1 Z.6 F30000
G1 X91.101 Y114.955
G1 Z.2
G1 E2 F2400
;WIDTH:0.414414
G1 F3000
G1 X89.872 Y114.908 E.03799
G1 X89.646 Y114.515 E.014
;WIDTH:0.44739
G1 X89.297 Y113.873 E.02458
G1 X89.306 Y113.886 E.00053
;WIDTH:0.44608
G1 X89.818 Y114.385 E.02397
;WIDTH:0.414414
G1 X90.106 Y114.584 E.01081
G1 X90.581 Y114.815 E.01632
G1 X91.043 Y114.939 E.01478
G1 X90.705 Y114.897 F30000
G1 E-2 F2400
G1 Z.6 F30000
G1 X88.989 Y111.36
G1 Z.2
G1 E2 F2400
;WIDTH:0.476764
G1 F3000
G1 X89.209 Y110.96 E.01647
;WIDTH:0.503999
G1 X89.376 Y110.718 E.01127
;WIDTH:0.550444
G1 X89.542 Y110.476 E.01238
G1 X88.989 Y111.36 F30000
;WIDTH:0.476764
G1 F3000
G1 X88.981 Y111.393 E.00122
;WIDTH:0.473873
G1 X88.881 Y111.979 E.0213
;WIDTH:0.443181
G1 X88.869 Y112.413 E.01445
G1 X88.93 Y112.983 E.01908
;WIDTH:0.449914
G1 X89.076 Y113.486 E.01772
G1 X89.056 Y113.451 E.00136
;WIDTH:0.44923
G1 X88.803 Y112.982 E.018
;WIDTH:0.443181
G1 X88.444 Y112.267 E.02663
G1 X88.659 Y111.896 E.01427
;WIDTH:0.476764
G1 X88.957 Y111.411 E.02053
G1 E-2 F2400
G1 Z.6 F30000
G1 X90.925 Y109.71
G1 Z.2
G1 E2 F2400
;WIDTH:0.4814
G1 F3000
G1 X91.217 Y109.695 E.01066
;WIDTH:0.451418
G1 X91.508 Y109.68 E.0099
;WIDTH:0.451755
G1 X91.807 Y109.695 E.01018
;WIDTH:0.482074
G1 X92.106 Y109.711 E.01093
G1 X90.925 Y109.71 F30000
;WIDTH:0.4814
G1 F3000
G1 X90.889 Y109.722 E.00138
;WIDTH:0.476971
G1 X90.17 Y110.036 E.02832
;WIDTH:0.474128
G1 X89.961 Y110.183 E.00916
;WIDTH:0.512286
G1 X89.752 Y110.33 E.00997
;WIDTH:0.550444
G1 X89.542 Y110.476 E.01079
G1 X89.563 Y110.426 E.00229
;WIDTH:0.534974
G1 X89.748 Y110.056 E.01693
;WIDTH:0.485472
G1 X89.933 Y109.687 E.01519
;WIDTH:0.43597
G1 X90.224 Y109.687 E.00951
;WIDTH:0.4814
G1 X90.865 Y109.708 E.02338
G1 E-2 F2400
G1 Z.6 F30000
G1 X92.878 Y112.008
G1 Z.2
G1 E2 F2400
;WIDTH:0.56187
G1 F3000
G1 X92.899 Y112.071 E.00287
;WIDTH:0.56517
G1 X92.92 Y112.264 E.00843
G1 X92.895 Y112.642 E.01645
;WIDTH:0.546873
G1 X92.718 Y113.074 E.01956
;WIDTH:0.548964
G1 X92.381 Y113.429 E.0206
G1 X92.151 Y113.552 E.01097
;WIDTH:0.536868
G1 X91.815 Y113.664 E.01455
G1 X91.315 Y113.675 E.02054
;WIDTH:0.534477
G1 X90.933 Y113.583 E.01606
;WIDTH:0.535446
G1 X90.632 Y113.413 E.01416
;WIDTH:0.544577
G1 X90.35 Y113.084 E.01807
G1 X90.214 Y112.732 E.01574
;WIDTH:0.537507
G1 X90.158 Y112.23 E.02077
;WIDTH:0.558606
G1 X90.226 Y111.812 E.01816
G1 X90.479 Y111.442 E.01922
;WIDTH:0.556542
G1 X90.813 Y111.165 E.01853
;WIDTH:0.573821
G1 X91.292 Y110.986 E.02257
G1 X91.752 Y110.979 E.02031
;WIDTH:0.572105
G1 X92.079 Y111.092 E.01522
;WIDTH:0.540158
G1 X92.507 Y111.369 E.02108
;WIDTH:0.561091
G1 X92.802 Y111.778 E.02173
;WIDTH:0.56187
G1 X92.859 Y111.951 E.00786
G1 E-2 F2400
G1 Z.6 F30000
G1 X90.71 Y112.033
G1 Z.2
G1 E2 F2400
;WIDTH:0.556563
G1 F3000
G1 X90.732 Y111.965 E.00305
G1 X90.952 Y111.686 E.01517
;WIDTH:0.553491
G1 X91.214 Y111.548 E.01257
;WIDTH:0.577746
G1 X91.528 Y111.496 E.01415
G1 X91.893 Y111.554 E.01644
;WIDTH:0.540802
G1 X92.18 Y111.745 E.01427
;WIDTH:0.562036
G1 X92.385 Y112.141 E.01925
G1 X92.39 Y112.575 E.01873
;WIDTH:0.547244
G1 X92.272 Y112.835 E.01197
G1 X91.953 Y113.106 E.01755
;WIDTH:0.534559
G1 X91.648 Y113.192 E.01295
G1 X91.231 Y113.175 E.01706
;WIDTH:0.537069
G1 X90.942 Y113.029 E.0133
;WIDTH:0.547387
G1 X90.773 Y112.813 E.0115
G1 X90.678 Y112.573 E.01083
;WIDTH:0.539529
G1 X90.654 Y112.207 E.01515
;WIDTH:0.556563
G1 X90.692 Y112.09 E.00525
G1 E-2 F2400
G1 Z.6 F30000
G1 X12.2 Y123.036
G1 Z.2
G1 E2 F2400
;HEIGHT:0.2
;TYPE:Wipe tower
;WIDTH:0.5
;--------------------
; CP TOOLCHANGE START
; toolchange #1
; material : PLA -> PLA
;--------------------
M220 S100
; CP TOOLCHANGE UNLOAD
;WIDTH:0.6
G1 X12.700 Y123.336
SET_PRESSURE_ADVANCE ADVANCE=0
G1 F3554
G1 X27.509 E0.6860
G1 F3662
G1 X42.768 Y123.336 E0.7068
G1 F3877
G1 X58.923 E0.7484
G1 F4093
G1 X71.200 E0.5687
G1 Y123.936 F7200
G1 F4093
G1 X66.424 E0.2212
G1 F4254
G1 X48.697 E0.8211
G1 F4416
G1 X30.298 E0.8523
G1 F4685
G1 X12.700 Y123.936 E0.8151
G1 Y124.536 F7200
G1 F4685
G1 X14.624 E0.0891
G1 F5062
G1 X35.716 Y124.536 E0.9770
G1 F5331
G1 X57.930 E1.0290
G1 F5385
G1 X71.200 E0.6147
G1 Y125.136 F7200
G1 F5385
G1 X62.032 E0.4247
;WIDTH:0.5
M104 S220
G1 Y125.736
G1 F3000
;G1 F-2147483648
G1 F3000
;G1 F-2147483648
G1 F3000
;G1 F-2147483648
G1 F3000
;G1 F-2147483648
G1 F2000
G1 Y125.686 F2400
G4 P0
G1 Z.6 F30000
; Filament-specific end gcode 
;END gcode for filament




SET_FILAMENT_SENSOR SENSOR=filament_sensor ENABLE=0
SET_FILAMENT_SENSOR SENSOR=filament_sensor_2 ENABLE=0

; Creality K1 3D Chameleon Mk3 Mode 3 Tool Change GCode for PrusaSlicer

; - 3D Chameleon Mk3 Tool T1 -
;begin switch from extruder 0 to extruder #1
M117 Unloading Tool T0
M83 ; turn relative distances for the extruder

G0 E-2 F2400; retract to prevent blobbing

; unload extruder 0
G92 E0
; go to holding position to unload the stock extruder
G0 X0 Y217 F2000  ; <<----- EDIT THIS LINE TO SET THE INITIAL LOCATION OF THE BUTTON

G91 ; move to relative mode
M83

; load extruder #1
M117 Loading Tool T1

; back out the filament for cutting
G0 E-38 F1000 ; retract a bit, adjust this to tune waste
; <<<< insert mechanical cutter code here! >>>>

; press the button to select the new extruder
G0 Y3 F2000



G4 P1000 ; dwell for 1.0 seconds - adjust this to match your machines two pulse time



G0 Y-3 F10000

G4 P1500 ; wait for cutter to work

; retract it back out of the extruder
G0 E35 F1000 ; <<<---- if mechanical cutter, change to a positive value of at least 5mm
G92 E0

; ok - out of extruder - press button to remove it all the way
G91 ; move to relative mode
M82

G0 Y3 F2000 
G4 P28000 
G0 Y-3
G4 P400

G0 Y3 ; 
G4 P27500 ;
G0 E15 F500 ; <<<--- adjust this E value to tune extruder loading
G4 P400

G92 E0

G90 ; move back to absolute mode
M83 ; but make sure the extruder stays in relative
; reload filament all the way into extruder

G92 E0

M117 3D Chameleon Tool T1

SET_FILAMENT_SENSOR SENSOR=filament_sensor ENABLE=1
SET_FILAMENT_SENSOR SENSOR=filament_sensor_2 ENABLE=1



T1
; Filament gcode

G1 F30000
G1 X62.032 Y125.686
G1 Z.2
G4 P0
G1 Y125.186
; CP TOOLCHANGE WIPE
G1 X12.950 Y125.186 E2.2012 F990
G1 F30000
G4 P0
G92 E0
; CP TOOLCHANGE END
;------------------


G1 X71.450 Y205.486 F7200
;HEIGHT:0.2
;TYPE:Wipe tower
;WIDTH:0.5
G1 X12.450 E2.2424 F3000
G1 X12.450 Y182.486 E0.8741
G1 X71.450 E2.2424
G1 Y205.486 E0.8741
G1 X12.450
G1 X12.450 Y182.486
G1 X13.450
;--------------------
; CP EMPTY GRID START
; layer #1
G1 Y182.986 E0.0190
G1 X70.950 E2.1854
G1 Y183.486 E0.0190
G1 X12.950 E2.2044
G1 Y183.986 E0.0190
G1 X70.950 E2.2044
G1 Y184.486 E0.0190
G1 X12.950 E2.2044
G1 Y184.986 E0.0190
G1 X70.950 E2.2044
G1 Y185.486 E0.0190
G1 X12.950 E2.2044
G1 Y185.986 E0.0190
G1 X70.950 E2.2044
G1 Y186.486 E0.0190
G1 X12.950 E2.2044
G1 Y186.986 E0.0190
G1 X70.950 E2.2044
G1 Y187.486 E0.0190
G1 X12.950 E2.2044
G1 Y187.986 E0.0190
G1 X70.950 E2.2044
G1 Y188.486 E0.0190
G1 X12.950 E2.2044
G1 Y188.986 E0.0190
G1 X70.950 E2.2044
G1 Y189.486 E0.0190
G1 X12.950 E2.2044
G1 Y189.986 E0.0190
G1 X70.950 E2.2044
G1 Y190.486 E0.0190
G1 X12.950 E2.2044
G1 Y190.986 E0.0190
G1 X70.950 E2.2044
G1 Y191.486 E0.0190
G1 X12.950 E2.2044
G1 Y191.986 E0.0190
G1 X70.950 E2.2044
G1 Y192.486 E0.0190
G1 X12.950 E2.2044
G1 Y192.986 E0.0190
G1 X70.950 E2.2044
G1 Y193.486 E0.0190
G1 X12.950 E2.2044
G1 Y193.986 E0.0190
G1 X70.950 E2.2044
G1 Y194.486 E0.0190
G1 X12.950 E2.2044
G1 Y194.986 E0.0190
G1 X70.950 E2.2044
G1 Y195.486 E0.0190
G1 X12.950 E2.2044
G1 Y195.986 E0.0190
G1 X70.950 E2.2044
G1 Y196.486 E0.0190
G1 X12.950 E2.2044
G1 Y196.986 E0.0190
G1 X70.950 E2.2044
G1 Y197.486 E0.0190
G1 X12.950 E2.2044
G1 Y197.986 E0.0190
G1 X70.950 E2.2044
G1 Y198.486 E0.0190
G1 X12.950 E2.2044
G1 Y198.986 E0.0190
G1 X70.950 E2.2044
G1 Y199.486 E0.0190
G1 X12.950 E2.2044
G1 Y199.986 E0.0190
G1 X70.950 E2.2044
G1 Y200.486 E0.0190
G1 X12.950 E2.2044
G1 Y200.986 E0.0190
G1 X70.950 E2.2044
G1 Y201.486 E0.0190
G1 X12.950 E2.2044
G1 Y201.986 E0.0190
G1 X70.950 E2.2044
G1 Y202.486 E0.0190
G1 X12.950 E2.2044
G1 Y202.986 E0.0190
G1 X70.950 E2.2044
G1 Y203.486 E0.0190
G1 X12.950 E2.2044
G1 Y203.986 E0.0190
G1 X70.950 E2.2044
G1 Y204.486 E0.0190
G1 X12.950 E2.2044
G1 Y204.986 E0.0190
G1 X70.950 E2.2044
G1 Y205.486 E0.0190
; CP EMPTY GRID END
;------------------






G1 X71.950 Y205.986
G1 X11.950 E2.2804
G1 X11.950 Y122.786 E3.1621
G1 X71.950 Y122.786 E2.2804
G1 X71.950 Y205.986 E3.1621
G1 X72.407 Y206.443
G1 X11.493 E2.3151
G1 X11.493 Y122.329 E3.1969
G1 X72.407 Y122.329 E2.3151
G1 X72.407 Y206.443 E3.1969
G1 X72.864 Y206.900
G1 X11.036 E2.3499
G1 X11.036 Y121.872 E3.2316
G1 X72.864 Y121.872 E2.3499
G1 X72.864 Y206.900 E3.2316
G1 X73.321 Y207.357
G1 X10.579 E2.3846
G1 X10.579 Y121.415 E3.2664
G1 X73.321 Y121.415 E2.3846
G1 X73.321 Y207.357 E3.2664
G1 X73.778 Y207.814
G1 X10.122 Y207.814 E2.4194
G1 X10.122 Y120.958 E3.3011
G1 X73.778 Y120.958 E2.4194
G1 X73.778 Y207.814 E3.3011

G1 E-2 F2400
G1 Z.6 F30000
G1 X74.695 Y211.87
G1 Z.2
G1 E2 F2400
