; generated by PrusaSlicer 2.5.0+win64 on 2023-01-16 at 17:27:56 UTC

; 

; external perimeters extrusion width = 0.45mm
; perimeters extrusion width = 0.45mm
; infill extrusion width = 0.45mm
; solid infill extrusion width = 0.45mm
; top infill extrusion width = 0.40mm
; first layer extrusion width = 0.42mm

; external perimeters extrusion width = 0.45mm
; perimeters extrusion width = 0.45mm
; infill extrusion width = 0.45mm
; solid infill extrusion width = 0.45mm
; top infill extrusion width = 0.40mm
; first layer extrusion width = 0.42mm

; external perimeters extrusion width = 0.45mm
; perimeters extrusion width = 0.45mm
; infill extrusion width = 0.45mm
; solid infill extrusion width = 0.45mm
; top infill extrusion width = 0.40mm
; first layer extrusion width = 0.42mm

; external perimeters extrusion width = 0.45mm
; perimeters extrusion width = 0.45mm
; infill extrusion width = 0.45mm
; solid infill extrusion width = 0.45mm
; top infill extrusion width = 0.40mm
; first layer extrusion width = 0.42mm

M107
M190 S60 ; set bed temperature and wait for it to be reached
M104 S185 T0 ; set temperature
M104 S185 T1 ; set temperature
M104 S185 T2 ; set temperature
M104 S185 T3 ; set temperature
;TYPE:Custom
G28 ; home all axes
G29 ; probe bed level
G1 Z5 F5000 ; lift nozzle

G0 X110 Y217 F2000 ; go to button hold position
G0 Y220 F2000 ; press button
G4 S3 ; wait for 7 count (3 seconds)
G0 Y217 ; back off button - unit will home

M109 S185 T0 ; set temperature and wait for it to be reached
M109 S185 T1 ; set temperature and wait for it to be reached
M109 S185 T2 ; set temperature and wait for it to be reached
M109 S185 T3 ; set temperature and wait for it to be reached
G21 ; set units to millimeters
G90 ; use absolute coordinates
M83 ; use relative distances for extrusion
; Auto generated 3D Chameleon Mk3 Tool Change GCode for PrusaSlicer

; - 3D Chameleon Mk3 Tool T0 -
;begin switch from extruder -1 to extruder #0
M117 Unloading Tool T-1
; unload extruder -1
G92 E0
; go to holding position to unload the stock extruder
G0 X20 Y217 F2000 ;   <<-----  EDIT THIS LINE TO SET THE INITIAL LOCATION OF THE BUTTON - note the new X for holding for cut
; if this is the first load, then don't unload
 


; load extruder #0
M117 Loading Tool T0

G0 X110       ; move back to middle

; press the button to select the new extruder
G91 ; go to relative mode for button press
G0 Y3 F2000 ; press the button

G4 P400 ; dwell for .5 seconds - adjust this to match your machines single pulse time




G0 Y-3 ; back off the button


G4 S5; wait for it to happen ; adjust this time to match the actual tool change time - subtract the time it takes to load for the last 1" into the extruder

G0 E25 F300 ;      << -------   ADJUST THE E50 VALUE TO STOP IT RIGHT AFTER IT LOADS INTO THE STOCK EXTRUDER (50mm is the default)
;                ADJUST THE F1500 TO MATCH THE SPEED OF THE FILAMENT FROM THE 3D CHAMELEON
;                NOTE: This defaults should work, but you can always tune them to be perfect.
; reload filament all the way into extruder

G0 E10 F300 ; <<<<<-----------  EDIT THIS DISTANCE TO FINE TUNE THE FILAMENT LOADING TO STOP BLOBBING OR UNDEREXTRUSION

G90 ; move back to absolute mode
M83 ; but make sure the extruder stays in relative

M117 3D Chameleon Tool T0
T0
; Filament gcode
G1 Z.25 F7800
M107
;LAYER_CHANGE
;Z:0.25
;HEIGHT:0.25
G92 E0
G1 E-.5 F2400
G1 Z.25 F7800
G1 X77.882 Y57.352
G1 E.5 F2400
;TYPE:Skirt/Brim
;WIDTH:0.42
;HEIGHT:0.25
G1 F1800
G1 X78.817 Y56.082 E.05703
G1 X81.458 Y53.148 E.1428
G1 X84.582 Y50.317 E.15252
G1 X87.761 Y47.976 E.14281
G1 X90.918 Y46.084 E.13314
G1 X94.481 Y44.385 E.14278
G1 X98.193 Y43.042 E.14281
G1 X102.02 Y42.07 E.14283
G1 X105.923 Y41.478 E.1428
G1 X110.259 Y41.277 E.157
G1 X114.077 Y41.478 E.13832
G1 X117.98 Y42.07 E.1428
G1 X121.807 Y43.042 E.14283
G1 X125.272 Y44.282 E.13313
G1 X128.845 Y45.958 E.14277
G1 X132.239 Y47.976 E.14282
G1 X135.625 Y50.487 E.15249
G1 X138.542 Y53.148 E.14283
G1 X141.013 Y55.875 E.13312
G1 X143.524 Y59.261 E.15249
G1 X145.542 Y62.655 E.14282
G1 X147.218 Y66.228 E.14277
G1 X148.458 Y69.693 E.13313
G1 X149.43 Y73.52 E.14283
G1 X150.022 Y77.423 E.1428
G1 X150.23 Y81.619 E.15195
G1 X144.739 Y208.127 E4.5806
G1 X144.285 Y209.52 E.05299
G1 X143.177 Y210.479 E.05299
G1 X142.009 Y210.741 E.04333
G1 X77.991 Y210.741 E2.31574
G1 X76.58 Y210.349 E.05299
G1 X75.574 Y209.283 E.05299
G1 X75.261 Y208.127 E.04333
G1 X69.77 Y81.619 E4.5806
G1 X69.952 Y77.69 E.14228
G1 X70.518 Y73.783 E.14279
G1 X71.464 Y69.95 E.14281
G1 X72.782 Y66.228 E.14283
G1 X74.458 Y62.655 E.14277
G1 X76.476 Y59.261 E.14283
G1 X77.847 Y57.4 E.08361
;WIPE_START
G1 F6240
G1 X78.617 Y56.353 E-.475
;WIPE_END
G1 E-.025 F2400
G1 X101.327 Y104.811 F7800
G1 E.5 F2400
;TYPE:Perimeter
;WIDTH:0.499294
G1 F1800
G1 X101.329 Y104.811 E.00013
;WIDTH:0.474725
G1 X101.994 Y105.016 E.02893
G1 X102.205 Y105.139 E.01014
;WIDTH:0.449011
G1 X102.416 Y105.262 E.00952
;WIDTH:0.423297
G1 X102.559 Y105.377 E.00668
;WIDTH:0.419999
G1 X102.654 Y105.523 E.00631
G1 X102.701 Y105.717 E.00724
G1 X102.593 Y106.075 E.01353
G1 X102.246 Y106.476 E.01916
G1 X101.498 Y107.094 E.03511
G1 X100.647 Y107.685 E.03749
G1 X100.173 Y107.903 E.01886
G1 X99.891 Y107.929 E.01023
G1 X99.689 Y107.851 E.00783
G1 X99.436 Y107.593 E.01306
G1 X99.371 Y107.399 E.00741
G1 X99.307 Y106.886 E.01871
G1 X99.305 Y105.621 E.04577
G1 X99.339 Y105.198 E.01535
G1 X99.48 Y104.76 E.01663
G1 X99.537 Y104.681 E.00354
G1 X99.972 Y104.493 E.01712
;WIDTH:0.459647
G1 X100.281 Y104.539 E.01255
;WIDTH:0.499294
G1 X100.591 Y104.585 E.01378
G1 X101.269 Y104.793 E.03123
;WIPE_START
G1 F6240
G1 X101.329 Y104.811 E-.02297
G1 X101.994 Y105.016 E-.25426
G1 X102.205 Y105.139 E-.0891
G1 X102.416 Y105.262 E-.0891
G1 X102.457 Y105.296 E-.01956
;WIPE_END
G1 E-.025 F2400
G1 X106.367 Y106.021 F7800
G1 E.5 F2400
;WIDTH:0.580432
G1 F1800
G1 X106.38 Y106.023 E.00071
;WIDTH:0.593142
G1 X106.576 Y106.058 E.01058
G1 X106.669 Y106.1 E.00544
;WIDTH:0.549857
G1 X106.762 Y106.141 E.005
;WIDTH:0.506571
G1 X106.855 Y106.183 E.00457
;WIDTH:0.463285
G1 X106.948 Y106.225 E.00413
;WIDTH:0.419999
G1 X107.694 Y106.444 E.02812
;WIDTH:0.425113
G1 X107.976 Y106.619 E.01216
G1 X107.994 Y106.646 E.00118
G1 X108.305 Y106.385 E.0149
;WIDTH:0.419999
G1 X108.826 Y106.152 E.02064
;WIDTH:0.441122
G1 X109.361 Y105.985 E.02145
G1 X110.004 Y105.887 E.02487
;WIDTH:0.394303
G1 X110.733 Y105.835 E.0246
;WIDTH:0.373509
G1 X111.268 Y105.812 E.01693
;WIDTH:0.403939
G1 X112.249 Y105.785 E.03392
;WIDTH:0.446822
G1 X113.12 Y105.758 E.03382
G1 X113.228 Y105.773 E.00425
;WIDTH:0.436729
G1 X113.552 Y105.978 E.01449
;WIDTH:0.419999
G1 X113.66 Y106.205 E.00908
G1 X113.665 Y106.414 E.00759
G1 X113.791 Y106.253 E.00744
G1 X114.362 Y105.992 E.02269
;WIDTH:0.463857
G1 X114.479 Y105.929 E.00537
;WIDTH:0.507715
G1 X114.596 Y105.867 E.00595
;WIDTH:0.551573
G1 X114.713 Y105.804 E.00652
;WIDTH:0.595431
G1 X114.83 Y105.741 E.00709
G1 X115.312 Y105.6 E.02687
;WIDTH:0.558934
G1 X115.806 Y105.466 E.02557
;WIDTH:0.529747
G1 X116.787 Y105.193 E.04784
;WIDTH:0.486266
G1 X117.738 Y104.92 E.04227
;WIDTH:0.458989
G1 X118.546 Y104.69 E.03363
;WIDTH:0.467971
G1 X119.241 Y104.488 E.02964
;WIDTH:0.494856
G1 X119.903 Y104.289 E.03012
;WIDTH:0.520104
G1 X120.255 Y104.177 E.01699
;WIDTH:0.545351
G1 X120.607 Y104.066 E.01791
G1 X120.795 Y104.035 E.00925
;WIDTH:0.503567
G1 X120.983 Y104.004 E.00847
;WIDTH:0.461783
G1 X121.171 Y103.973 E.00768
;WIDTH:0.419999
G1 X122.041 Y103.751 E.03248
G1 X122.92 Y103.577 E.03241
G1 X123.176 Y103.588 E.00929
G1 X123.417 Y103.731 E.01013
G1 X123.627 Y103.995 E.01221
G1 X123.742 Y104.35 E.0135
G1 X123.81 Y106.204 E.06712
G1 X123.791 Y108.521 E.08382
G1 X123.715 Y109.336 E.0296
G1 X123.531 Y110.219 E.03261
G1 X123.189 Y111.321 E.04174
G1 X123.015 Y111.614 E.01234
G1 X122.688 Y111.833 E.01421
G1 X122.303 Y111.874 E.01401
G1 X121.359 Y111.65 E.03511
G1 X120.73 Y111.417 E.02426
G1 X119.603 Y110.932 E.04437
G1 X118.778 Y110.535 E.03312
G1 X117.345 Y109.749 E.05914
G1 X116.393 Y109.154 E.04059
G1 X115.477 Y108.519 E.04033
G1 X114.744 Y107.977 E.03296
G1 X114.224 Y107.565 E.02402
G1 X113.735 Y107.071 E.02513
G1 X113.598 Y106.691 E.01463
G1 X113.472 Y107.559 E.03173
G1 X113.328 Y108.117 E.02085
G1 X113.025 Y108.917 E.03094
G1 X112.595 Y109.676 E.03155
G1 X112.14 Y110.266 E.02695
G1 X111.775 Y110.654 E.01929
G1 X111.14 Y111.2 E.03028
G1 X110.897 Y111.319 E.0098
G1 X110.679 Y111.321 E.00787
G1 X110.478 Y111.239 E.00785
G1 X110.096 Y110.956 E.01719
G1 X109.713 Y110.505 E.02142
G1 X109.225 Y109.836 E.02996
G1 X108.941 Y109.398 E.01887
G1 X108.483 Y108.624 E.03253
G1 X108.198 Y108.041 E.02349
G1 X107.939 Y107.383 E.02557
G1 X107.593 Y107.93 E.02341
G1 X107.202 Y108.437 E.02315
G1 X106.739 Y108.968 E.02549
G1 X106.252 Y109.443 E.02463
G1 X105.849 Y109.818 E.01992
G1 X105.314 Y110.148 E.02273
G1 X104.837 Y110.336 E.01854
G1 X104.375 Y110.388 E.01679
G1 X104.137 Y110.341 E.00878
G1 X103.846 Y110.161 E.01238
G1 X103.696 Y109.948 E.00944
G1 X103.513 Y109.475 E.01834
G1 X103.303 Y108.747 E.0274
G1 X103.048 Y107.71 E.03863
G1 X102.905 Y107.02 E.0255
G1 X102.832 Y106.456 E.02057
G1 X102.887 Y106.122 E.01225
G1 X103.058 Y105.874 E.01088
;WIDTH:0.457912
G1 X103.197 Y105.811 E.00611
;WIDTH:0.495825
G1 X103.336 Y105.747 E.00668
;WIDTH:0.533738
G1 X103.475 Y105.684 E.00725
;WIDTH:0.571651
G1 X103.615 Y105.621 E.00782
G1 X104.556 Y105.718 E.04843
;WIDTH:0.544386
G1 X105.466 Y105.86 E.04461
;WIDTH:0.580432
G1 X106.308 Y106.01 E.04447
G1 X106.29 Y106.461 F7800
;TYPE:External perimeter
;WIDTH:0.419999
G1 F1800
G1 X107.091 Y106.629 E.02963
G1 X107.578 Y106.791 E.01854
;WIDTH:0.448128
G1 X107.723 Y106.887 E.00679
;WIDTH:0.481782
G1 X107.758 Y107.01 E.0054
G1 X107.549 Y107.328 E.01611
;WIDTH:0.450891
G1 X107.339 Y107.646 E.01495
;WIDTH:0.419999
G1 X106.913 Y108.212 E.02561
G1 X106.463 Y108.726 E.02473
G1 X105.599 Y109.55 E.04319
G1 X105.128 Y109.832 E.01987
G1 X104.656 Y110.004 E.01818
G1 X104.286 Y110.006 E.01336
G1 X104.045 Y109.831 E.01082
G1 X103.852 Y109.329 E.01944
G1 X103.659 Y108.66 E.02519
G1 X103.404 Y107.623 E.03863
G1 X103.264 Y106.945 E.02501
G1 X103.196 Y106.41 E.01954
G1 X103.234 Y106.239 E.00633
G1 X103.356 Y106.122 E.00614
G1 X103.67 Y106.066 E.01153
G1 X104.508 Y106.144 E.03045
G1 X105.397 Y106.283 E.03253
G1 X106.231 Y106.449 E.03078
G1 X106.554 Y106.16 F7800
;WIPE_START
G1 F6240
G1 X107.091 Y106.629 E-.32116
G1 X107.491 Y106.763 E-.15384
;WIPE_END
G1 E-.025 F2400
G1 X102.236 Y105.594 F7800
G1 E.5 F2400
G1 F1800
G1 X102.288 Y105.623 E.00217
G1 X102.335 Y105.737 E.00445
G1 X102.293 Y105.865 E.00487
G1 X102.013 Y106.193 E.01561
G1 X101.264 Y106.811 E.03511
G1 X100.438 Y107.384 E.03636
G1 X99.984 Y107.57 E.01777
G1 X99.861 Y107.523 E.00474
G1 X99.756 Y107.415 E.00546
G1 X99.673 Y106.885 E.01939
G1 X99.671 Y105.62 E.04577
G1 X99.692 Y105.294 E.01182
G1 X99.813 Y104.921 E.01417
G1 X100.014 Y104.861 E.00758
G1 X100.556 Y104.995 E.02022
G1 X101.876 Y105.392 E.04985
G1 X102.183 Y105.565 E.01274
G1 X102.285 Y105.561 F7800
;WIPE_START
G1 F6240
G1 X102.288 Y105.623 E-.04385
G1 X102.335 Y105.737 E-.04497
G1 X102.293 Y105.865 E-.04917
G1 X102.013 Y106.193 E-.15771
G1 X101.634 Y106.506 E-.17929
;WIPE_END
G1 E-.025 F2400
G1 X109.647 Y106.313 F7800
G1 E.5 F2400
G1 F1800
G1 X110.068 Y106.235 E.01549
G1 X110.761 Y106.177 E.02516
G1 X111.283 Y106.155 E.01888
G1 X113.122 Y106.138 E.06653
G1 X113.266 Y106.207 E.00578
G1 X113.303 Y106.351 E.00541
G1 X113.111 Y107.498 E.04206
G1 X112.974 Y108.024 E.01966
G1 X112.683 Y108.785 E.02947
G1 X112.278 Y109.493 E.02949
G1 X111.849 Y110.044 E.02527
G1 X111.496 Y110.415 E.01852
G1 X110.902 Y110.921 E.02821
G1 X110.749 Y110.961 E.00575
G1 X110.376 Y110.719 E.01609
G1 X109.992 Y110.268 E.02142
G1 X109.521 Y109.62 E.02895
G1 X109.249 Y109.199 E.01815
G1 X108.801 Y108.442 E.03181
G1 X108.528 Y107.881 E.0226
;WIDTH:0.452735
G1 X108.219 Y107.133 E.03186
;WIDTH:0.481782
G1 X108.186 Y107.005 E.00559
G1 X108.275 Y106.897 E.00592
;WIDTH:0.450891
G1 X108.365 Y106.789 E.0055
;WIDTH:0.419999
G1 X108.545 Y106.669 E.00785
G1 X108.991 Y106.481 E.01749
G1 X109.588 Y106.324 E.02233
G1 X109.764 Y105.93 F7800
;WIPE_START
G1 F6240
G1 X110.068 Y106.235 E-.1784
G1 X110.761 Y106.177 E-.25412
G1 X110.877 Y106.172 E-.04249
;WIPE_END
G1 E-.025 F2400
G1 X121.183 Y104.35 F7800
G1 E.5 F2400
G1 F1800
G1 X122.131 Y104.106 E.03543
G1 X122.991 Y103.937 E.03169
G1 X123.112 Y103.954 E.00443
G1 X123.294 Y104.149 E.00964
G1 X123.387 Y104.479 E.01241
G1 X123.444 Y106.214 E.06281
G1 X123.424 Y108.518 E.08334
G1 X123.35 Y109.301 E.02845
G1 X123.173 Y110.143 E.0311
G1 X122.866 Y111.147 E.038
G1 X122.707 Y111.4 E.0108
G1 X122.516 Y111.497 E.00777
G1 X122.23 Y111.502 E.01034
G1 X121.453 Y111.296 E.02909
G1 X120.859 Y111.074 E.02294
G1 X119.748 Y110.596 E.04373
G1 X118.445 Y109.947 E.05268
G1 X117.082 Y109.164 E.05684
G1 X115.685 Y108.218 E.06101
G1 X114.962 Y107.683 E.03255
G1 X114.452 Y107.278 E.02357
G1 X113.997 Y106.815 E.02347
G1 X113.947 Y106.657 E.00601
G1 X114.016 Y106.542 E.00482
G1 X114.504 Y106.329 E.01928
G1 X115.928 Y105.869 E.05412
G1 X118.144 Y105.201 E.08373
G1 X121.125 Y104.366 E.11197
G1 X121.286 Y103.964 F7800
;WIPE_START
G1 F6240
G1 X122.131 Y104.106 E-.37981
G1 X122.387 Y104.056 E-.09519
;WIPE_END
G1 E-.025 F2400
G1 X125.754 Y101.527 F7800
G1 E.5 F2400
;TYPE:Perimeter
;WIDTH:0.459204
G1 F1800
G1 X125.862 Y101.395 E.00683
;WIDTH:0.498408
G1 X125.97 Y101.263 E.00749
;WIDTH:0.537612
G1 X126.078 Y101.131 E.00815
G1 X126.819 Y100.461 E.04773
;WIDTH:0.503644
G1 X127.033 Y100.267 E.01282
;WIDTH:0.497961
G1 X127.801 Y99.592 E.04486
;WIDTH:0.492775
G1 X127.824 Y99.571 E.00135
;WIDTH:0.513707
G1 X128.924 Y98.586 E.06707
;WIDTH:0.53106
G1 X129.341 Y98.232 E.02579
;WIDTH:0.56647
G1 X129.948 Y97.71 E.04054
;WIDTH:0.592835
G1 X130.237 Y97.478 E.01974
G1 X130.331 Y97.436 E.00543
;WIDTH:0.549626
G1 X130.424 Y97.394 E.005
;WIDTH:0.506417
G1 X130.517 Y97.352 E.00456
;WIDTH:0.463208
G1 X130.61 Y97.311 E.00413
;WIDTH:0.419999
G1 X130.755 Y97.203 E.00652
G1 X131.065 Y97.096 E.01187
G1 X131.32 Y97.152 E.00947
;WIDTH:0.416519
G1 X131.495 Y97.312 E.0085
;WIDTH:0.419999
G1 X131.835 Y98.13 E.03201
G1 X132.043 Y98.719 E.02259
G1 X132.436 Y100.065 E.05075
G1 X132.663 Y101.048 E.0365
G1 X132.827 Y101.987 E.03447
G1 X133.022 Y103.729 E.06339
G1 X133.035 Y104.459 E.02641
G1 X133.009 Y104.634 E.00642
G1 X132.855 Y104.874 E.01032
G1 X132.632 Y104.997 E.0092
G1 X132.194 Y105.113 E.0164
G1 X131.684 Y105.182 E.01859
G1 X130.756 Y105.226 E.03362
G1 X129.725 Y105.179 E.03733
G1 X128.826 Y105.068 E.03276
G1 X128.19 Y104.946 E.02342
G1 X127.029 Y104.644 E.04341
G1 X126.405 Y104.42 E.02398
G1 X125.678 Y104.157 E.02796
G1 X124.886 Y103.819 E.03117
G1 X124.548 Y103.64 E.01383
G1 X124.418 Y103.456 E.00815
G1 X124.374 Y103.286 E.00634
G1 X124.423 Y103.006 E.0103
G1 X124.72 Y102.577 E.01888
G1 X125.171 Y102.093 E.02395
G1 X125.711 Y101.568 E.02722
G1 X125.742 Y102.049 F7800
;TYPE:External perimeter
G1 F1800
G1 X126.55 Y101.265 E.04071
G1 X127.301 Y100.571 E.03699
G1 X129.198 Y98.896 E.09153
G1 X130.227 Y98.049 E.04822
G1 X130.827 Y97.605 E.02702
G1 X131.076 Y97.462 E.01036
G1 X131.224 Y97.53 E.00591
G1 X131.697 Y98.841 E.05038
G1 X132.084 Y100.168 E.05001
G1 X132.306 Y101.131 E.03574
G1 X132.463 Y102.028 E.03295
G1 X132.658 Y103.769 E.06339
G1 X132.669 Y104.464 E.02513
G1 X132.609 Y104.603 E.00546
G1 X132.142 Y104.75 E.0177
G1 X131.533 Y104.823 E.0222
G1 X130.773 Y104.86 E.02754
G1 X129.742 Y104.813 E.03733
G1 X128.872 Y104.704 E.0317
G1 X128.262 Y104.587 E.02246
G1 X127.13 Y104.292 E.04234
G1 X125.803 Y103.812 E.05103
G1 X125.03 Y103.482 E.03042
G1 X124.769 Y103.338 E.01078
G1 X124.743 Y103.198 E.00516
G1 X125.033 Y102.773 E.01861
G1 X125.699 Y102.091 E.0345
G1 X125.634 Y101.664 F7800
;WIPE_START
G1 F6240
G1 X126.55 Y101.265 E-.43314
G1 X126.634 Y101.187 E-.04186
;WIPE_END
G1 E-.025 F2400
G1 X115.084 Y86.315 F7800
G1 E.5 F2400
;TYPE:Perimeter
G1 F1800
G1 X115.127 Y86.196 E.00457
G1 X115.69 Y85.47 E.03324
G1 X116.664 Y84.348 E.05375
G1 X117.894 Y83.041 E.06494
